<?xml version="1.0" encoding="UTF-8"?>
<map version="1.10" tiledversion="1.11.0" orientation="orthogonal" renderorder="right-down" width="24" height="24" tilewidth="16" tileheight="16" infinite="0" nextlayerid="3" nextobjectid="1">
 <tileset firstgid="1" source="a.tsx"/>
 <layer id="1" name="Tile Layer 1" width="24" height="24" visible="0" locked="1">
  <data encoding="csv">
845,845,845,845,845,845,845,845,845,845,845,845,845,845,845,845,845,845,845,845,845,845,845,845,
845,845,845,845,845,845,845,845,845,845,845,845,845,845,845,845,845,845,845,845,845,845,845,845,
845,845,845,845,845,845,845,845,845,845,845,845,845,845,845,845,845,845,845,845,845,845,845,845,
845,845,845,845,845,845,845,845,845,845,845,845,845,845,845,845,845,845,845,845,845,845,845,845,
845,845,845,845,845,845,845,845,845,845,845,845,845,845,845,845,845,845,845,845,845,845,845,845,
845,845,845,845,845,845,845,845,845,845,845,845,845,845,845,845,845,845,845,845,845,845,845,845,
845,845,845,845,845,845,845,845,845,845,845,845,845,845,845,845,845,845,845,845,845,845,845,845,
845,845,845,845,845,845,845,845,845,845,845,845,845,845,845,845,845,845,845,845,845,845,845,845,
845,845,845,845,845,845,845,845,845,845,845,845,845,845,845,845,845,845,845,845,845,845,845,845,
845,845,845,845,845,845,845,845,845,845,845,845,845,845,845,845,845,845,845,845,845,845,845,845,
845,845,845,845,845,845,845,845,845,845,845,845,845,845,845,845,845,845,845,845,845,845,845,845,
845,845,845,845,845,845,845,845,845,845,845,845,845,845,845,845,845,845,845,845,845,845,845,845,
845,845,845,845,845,845,845,845,845,845,845,845,845,845,845,845,845,845,845,845,845,845,845,845,
845,845,845,845,845,845,845,845,845,845,845,845,845,845,845,845,845,845,845,845,845,845,845,845,
845,845,845,845,845,845,845,845,845,845,845,845,845,845,845,845,845,845,845,845,845,845,845,845,
845,845,845,845,845,845,845,845,845,845,845,845,845,845,845,845,845,845,845,845,845,845,845,845,
845,845,845,845,845,845,845,845,845,845,845,845,845,845,845,845,845,845,845,845,845,845,845,845,
845,845,845,845,845,845,845,845,845,845,845,845,845,845,845,845,845,845,845,845,845,845,845,845,
845,845,845,845,845,845,845,845,845,845,845,845,845,845,845,845,845,845,845,845,845,845,845,845,
845,845,845,845,845,845,845,845,845,845,845,845,845,845,845,845,845,845,845,845,845,845,845,845,
845,845,845,845,845,845,845,845,845,845,845,845,845,845,845,845,845,845,845,845,845,845,845,845,
845,845,845,845,845,845,845,845,845,845,845,845,845,845,845,845,845,845,845,845,845,845,845,845,
845,845,845,845,845,845,845,845,845,845,845,845,845,845,845,845,845,845,845,845,845,845,845,845,
845,845,845,845,845,845,845,845,845,845,845,845,845,845,845,845,845,845,845,845,845,845,845,845
</data>
 </layer>
 <layer id="2" name="Tile Layer 1" width="24" height="24">
  <data encoding="csv">
1734,1822,1735,1735,1735,1824,1735,1735,1735,1735,1737,845,845,845,845,845,845,845,845,845,845,845,845,845,
1733,845,845,845,845,845,845,845,845,845,1733,845,845,845,845,845,845,845,845,845,3604,3603,3602,3602,
1733,845,845,845,845,845,845,2713,845,845,1733,845,845,845,845,845,845,845,845,845,845,845,845,845,
1733,845,845,845,845,845,845,845,845,845,1733,845,845,845,845,845,845,845,845,845,845,845,845,845,
1733,845,845,845,845,845,845,845,845,845,1733,845,845,845,845,845,1289,845,845,845,845,845,845,845,
1733,845,845,1734,1824,1735,1735,1735,1822,1824,1825,845,845,845,845,845,1201,845,845,845,845,845,845,845,
1733,845,845,1733,845,845,845,845,845,845,845,845,844,845,845,1201,1201,845,845,845,845,845,845,843,
1733,845,845,1556,845,2623,845,845,845,845,845,844,844,845,1201,1201,1201,845,845,845,845,845,843,843,
1733,845,845,845,845,845,2447,845,845,844,844,844,844,1201,1201,1201,845,845,401,401,845,845,843,843,
1733,845,845,845,845,845,845,845,844,844,844,844,844,1201,845,845,845,845,845,401,401,843,843,843,
1823,1735,1735,1735,1826,845,845,844,844,844,844,844,844,845,845,845,845,845,845,843,843,843,490,402,
1467,1467,1467,1467,845,845,845,845,844,844,844,844,844,845,845,845,845,845,845,843,843,843,490,490,
1378,1378,1466,1466,845,845,845,845,844,845,844,844,845,845,845,845,845,845,845,845,843,843,843,401,
845,845,845,845,845,844,844,844,844,845,845,845,845,845,845,845,845,845,845,845,843,843,843,401,
845,845,845,844,845,844,844,845,845,845,845,845,845,845,845,756,845,845,845,845,843,843,843,843,
845,845,845,844,844,844,845,845,845,845,845,845,845,845,845,845,845,845,843,843,843,843,490,843,
845,845,845,845,845,845,845,845,845,845,845,845,845,845,845,845,843,843,490,843,843,843,843,843,
845,845,845,845,845,845,845,845,845,845,845,845,845,2983,845,845,843,843,490,843,843,843,843,843,
845,845,845,845,845,845,845,845,845,845,845,845,845,845,845,845,845,843,843,843,843,313,843,843,
845,845,845,845,845,845,845,845,845,845,845,845,845,845,845,845,845,845,843,843,843,843,843,843,
665,665,665,665,845,845,845,845,845,845,845,845,845,845,845,845,845,843,843,843,843,843,843,843,
665,665,665,665,845,845,845,845,845,845,845,845,845,845,845,843,843,843,843,490,843,843,843,843,
665,665,665,665,845,845,845,845,845,845,845,845,845,843,843,843,843,313,843,843,843,843,843,843,
665,665,665,665,845,845,845,845,845,845,845,845,843,843,843,843,843,843,843,843,843,843,843,313
</data>
 </layer>
</map>
